_site/assets/img/php.svg

<svg width="56" height="56" viewBox="0 0 56 56" fill="none" xmlns="http://www.w3.org/2000/svg">
<circle cx="28" cy="28" r="24.5" fill="#8892BF"/>
<path d="M25.2686 17.5H28.2086L27.3778 21.9174H30.0196C31.4683 21.9484 32.5476 22.2722 33.2579 22.8887C33.9823 23.5053 34.1953 24.6774 33.8971 26.4042L32.4696 34.1057H29.4869L30.8505 26.7511C30.9924 25.98 30.9497 25.4328 30.7226 25.109C30.4955 24.7852 30.0055 24.6233 29.2526 24.6233L26.8877 24.6002L25.1407 34.1057H22.2007L25.2686 17.5Z" fill="white"/>
<path fill-rule="evenodd" clip-rule="evenodd" d="M11.7966 21.9175H17.5063C19.1822 21.9327 20.3966 22.4573 21.1495 23.4901C21.9024 24.523 22.1508 25.9338 21.8951 27.7225C21.7959 28.5398 21.5756 29.3414 21.2347 30.1278C20.9079 30.9141 20.4536 31.6232 19.8712 32.2555C19.1609 33.0571 18.4011 33.566 17.5916 33.782C16.782 33.998 15.9438 34.1057 15.0776 34.1057H12.521L11.7114 38.5H8.75L11.7966 21.9175ZM13.011 31.4923L14.285 24.5771H14.7154C14.8718 24.5771 15.035 24.5693 15.2054 24.554C16.3418 24.5387 17.286 24.6544 18.039 24.9009C18.8059 25.1475 19.0616 26.0804 18.8059 27.6994C18.4936 29.6268 17.8826 30.7522 16.9737 31.076C16.0648 31.3845 14.9284 31.5307 13.5649 31.5154H13.2666C13.1814 31.5154 13.0962 31.5076 13.011 31.4923Z" fill="white"/>
<path fill-rule="evenodd" clip-rule="evenodd" d="M42.7639 21.9175H37.0542L34.0076 38.5H36.969L37.7786 34.1057H40.3352C41.2015 34.1057 42.0396 33.998 42.8492 33.782C43.6588 33.566 44.4185 33.0571 45.1288 32.2555C45.7113 31.6232 46.1655 30.9141 46.4923 30.1278C46.8332 29.3414 47.0535 28.5398 47.1528 27.7225C47.4084 25.9338 47.16 24.523 46.4071 23.4901C45.6542 22.4573 44.4398 21.9327 42.7639 21.9175ZM39.5426 24.5771L38.2686 31.4923C38.3538 31.5076 38.439 31.5154 38.5243 31.5154H38.8225C40.186 31.5307 41.3224 31.3845 42.2313 31.076C43.1402 30.7522 43.7512 29.6268 44.0635 27.6994C44.3192 26.0804 44.0635 25.1475 43.2966 24.9009C42.5437 24.6544 41.5994 24.5387 40.463 24.554C40.2926 24.5693 40.1294 24.5771 39.973 24.5771H39.5426Z" fill="white"/>
</svg>

<svg width="56" height="56" fill="none" xmlns="http://www.w3.org/2000/svg"><circle cx="28" cy="28" r="24.5" fill="#8892BF"/><path d="M25.269 17.5h2.94l-.831 4.417h2.642c1.448.031 2.528.355 3.238.972.724.616.937 1.788.64 3.515l-1.428 7.702h-2.983l1.364-7.355c.141-.771.099-1.318-.128-1.642-.227-.324-.717-.486-1.47-.486l-2.365-.023-1.747 9.506H22.2L25.269 17.5z" fill="#fff"/><path fill-rule="evenodd" clip-rule="evenodd" d="M11.797 21.918h5.71c1.675.015 2.89.54 3.642 1.572.753 1.033 1.002 2.444.746 4.233a8.64 8.64 0 01-.66 2.405 7.192 7.192 0 01-1.364 2.127c-.71.802-1.47 1.311-2.28 1.527a9.711 9.711 0 01-2.513.324H12.52l-.81 4.394H8.75l3.047-16.582zm1.214 9.574l1.274-6.915h.43c.157 0 .32-.008.49-.023 1.137-.015 2.081.1 2.834.347.767.247 1.023 1.18.767 2.798-.312 1.928-.923 3.053-1.832 3.377-.91.308-2.046.455-3.41.44h-.297c-.086 0-.17-.008-.256-.024zm29.753-9.574h-5.71L34.008 38.5h2.961l.81-4.394h2.556a9.71 9.71 0 002.514-.324c.81-.216 1.57-.725 2.28-1.526a7.19 7.19 0 001.363-2.128 8.602 8.602 0 00.66-2.405c.256-1.79.008-3.2-.745-4.233-.753-1.033-1.967-1.557-3.643-1.572zm-3.221 2.66l-1.274 6.914c.085.016.17.023.255.023h.298c1.364.016 2.5-.13 3.41-.439.908-.324 1.52-1.45 1.831-3.377.256-1.619 0-2.552-.766-2.798-.753-.247-1.698-.362-2.834-.347-.17.015-.334.023-.49.023h-.43z" fill="#fff"/></svg>
